src/assets/tag.svg

<?xml version="1.0" encoding="utf-8"?>
<svg width="800px" height="800px" viewBox="0 0 24 24" fill="none" xmlns="http://www.w3.org/2000/svg">
<path d="M7.0498 7.0498H7.0598M10.5118 3H7.8C6.11984 3 5.27976 3 4.63803 3.32698C4.07354 3.6146 3.6146 4.07354 3.32698 4.63803C3 5.27976 3 6.11984 3 7.8V10.5118C3 11.2455 3 11.6124 3.08289 11.9577C3.15638 12.2638 3.27759 12.5564 3.44208 12.8249C3.6276 13.1276 3.88703 13.387 4.40589 13.9059L9.10589 18.6059C10.2939 19.7939 10.888 20.388 11.5729 20.6105C12.1755 20.8063 12.8245 20.8063 13.4271 20.6105C14.112 20.388 14.7061 19.7939 15.8941 18.6059L18.6059 15.8941C19.7939 14.7061 20.388 14.112 20.6105 13.4271C20.8063 12.8245 20.8063 12.1755 20.6105 11.5729C20.388 10.888 19.7939 10.2939 18.6059 9.10589L13.9059 4.40589C13.387 3.88703 13.1276 3.6276 12.8249 3.44208C12.5564 3.27759 12.2638 3.15638 11.9577 3.08289C11.6124 3 11.2455 3 10.5118 3ZM7.5498 7.0498C7.5498 7.32595 7.32595 7.5498 7.0498 7.5498C6.77366 7.5498 6.5498 7.32595 6.5498 7.0498C6.5498 6.77366 6.77366 6.5498 7.0498 6.5498C7.32595 6.5498 7.5498 6.77366 7.5498 7.0498Z" stroke="#000000" stroke-width="2" stroke-linecap="round" stroke-linejoin="round"/>
</svg>

<svg xmlns="http://www.w3.org/2000/svg" width="800" height="800" fill="none" viewBox="0 0 24 24"><path stroke="#000" stroke-linecap="round" stroke-linejoin="round" stroke-width="2" d="M7.05 7.05h.01M10.512 3H7.8c-1.68 0-2.52 0-3.162.327a3 3 0 0 0-1.311 1.311C3 5.28 3 6.12 3 7.8v2.712c0 .733 0 1.1.083 1.446.073.306.195.598.36.867.185.303.444.562.963 1.08l4.7 4.7c1.188 1.189 1.782 1.783 2.467 2.005a3 3 0 0 0 1.854 0c.685-.222 1.28-.816 2.467-2.004l2.712-2.712c1.188-1.188 1.782-1.782 2.004-2.467a3 3 0 0 0 0-1.854c-.222-.685-.816-1.28-2.004-2.467l-4.7-4.7c-.519-.519-.778-.778-1.081-.964a3.001 3.001 0 0 0-.867-.36C11.612 3 11.245 3 10.512 3ZM7.55 7.05a.5.5 0 1 1-1 0 .5.5 0 0 1 1 0Z"/></svg>
